icons/1_Primary/STRATO.svg

<svg width="1024" height="1024" fill="none" xmlns="http://www.w3.org/2000/svg"><g clip-path="url(#a)"><path d="M512 1024c282.77 0 512-229.23 512-512S794.77 0 512 0 0 229.23 0 512s229.23 512 512 512Z" fill="#F8C18C"/><path d="M512 363a59.601 59.601 0 0 1-59.59-59.6H661a59.581 59.581 0 0 1 42.133 17.46A59.602 59.602 0 0 1 720.58 363v208.59A59.59 59.59 0 0 1 661 512V392.8a29.803 29.803 0 0 0-29.8-29.8H512Zm89.39 89.4a29.803 29.803 0 0 0-29.8-29.8H333.21a29.797 29.797 0 0 0-29.79 29.8v238.39a29.801 29.801 0 0 0 29.79 29.8h238.38c7.903 0 15.483-3.14 21.072-8.728a29.804 29.804 0 0 0 8.728-21.072V452.41" fill="#fff"/></g><defs><clipPath id="a"><path fill="#fff" d="M0 0h1024v1024H0z"/></clipPath></defs></svg>

<svg width="1024" height="1024" viewBox="0 0 1024 1024" fill="none" xmlns="http://www.w3.org/2000/svg">
<g clip-path="url(#clip0_2_3567)">
<path d="M512 1024C794.77 1024 1024 794.77 1024 512C1024 229.23 794.77 0 512 0C229.23 0 0 229.23 0 512C0 794.77 229.23 1024 512 1024Z" fill="#F8C18C"/>
<path d="M512 363C496.195 362.997 481.038 356.717 469.863 345.54C458.688 334.363 452.41 319.205 452.41 303.4H661C668.825 303.401 676.574 304.944 683.803 307.94C691.033 310.936 697.601 315.326 703.133 320.86C708.666 326.395 713.054 332.965 716.048 340.195C719.041 347.425 720.581 355.174 720.58 363V571.59C704.777 571.587 689.623 565.308 678.45 554.133C667.277 542.958 661 527.802 661 512V392.8C661 384.896 657.86 377.317 652.272 371.728C646.683 366.14 639.103 363 631.2 363H512ZM601.39 452.4C601.39 444.496 598.25 436.917 592.662 431.328C587.073 425.74 579.493 422.6 571.59 422.6H333.21C325.308 422.603 317.731 425.743 312.145 431.332C306.558 436.92 303.42 444.498 303.42 452.4V690.79C303.42 698.692 306.558 706.27 312.145 711.858C317.731 717.446 325.308 720.587 333.21 720.59H571.59C579.493 720.59 587.073 717.45 592.662 711.862C598.25 706.273 601.39 698.693 601.39 690.79V452.41" fill="white"/>
</g>
<defs>
<clipPath id="clip0_2_3567">
<rect width="1024" height="1024" fill="white"/>
</clipPath>
</defs>
</svg>
